X:1
T:Title
%%score { 1 | 2 }
L:1/8
M:6/8
K:Eb
V:1 treble nm="Grand Piano"
V:2 bass 
V:1
 z3 z2[Q:1/4=100] B | c2 B G2 G | [DF]2 [DG] E2 B | c2 c e2 c |[M:5/8] B2 G [DF]2 |[M:1/8] [DB] | %6
[M:3/4] c2 B G2 G | [A,DF]2 [B,DG] [G,E]2 [CEF] | [B,EG]2 [EAc] [EGB]2 [B,EG] | [A,DF]3 [G,E]3 | %10
[M:1/8] [EB] |[M:3/4] [Ge]2 [Ad] [EBe]2 [EAc] | [EGB]3 [B,EG]2 [EGB] | [EAc] [Ece]2 [EGB]2 [B,EG] | %14
 [EG]3 [DF]3 |[M:1/8] [DB] |[M:3/4] c2 B G2 G | [A,DF]2 [B,DG] [G,E]2 [CEF] | %18
 [B,EG]2 [EAc] [EGB]2 [B,EG] |[M:7/4] [A,DF]3 [G,E]3 z2 z2 z4 |] %20
V:2
 z3 z2 [E,G,E] | [E,A,E]2 [E,G,E] [E,B,E]2 [E,B,E] | [B,,A,]2 [B,,B,] [E,G,]2 [E,G,E] | %3
 [A,E]2 [A,E] [A,CE]2 [A,E] |[M:5/8] [E,G,E]2 [E,B,E] [B,,B,]2 |[M:1/8] [B,,A,] | %6
[M:3/4] [E,A,E]2 [E,G,E] [E,B,E]2 [E,B,E] | B,,2 B,, C,2 A,, | B,,2 B,, B,,2 B,, | B,,3 E,3 | %10
[M:1/8] [E,G,] |[M:3/4] [E,B,]2 [F,B,] G,2 A, | E,3 E,2 E, | A, A,2 E,2 E, | [B,,B,]3 [B,,B,]3 | %15
[M:1/8] [B,,A,] |[M:3/4] [E,A,E]2 [E,G,E] [E,B,E]2 [E,B,E] | B,,2 B,, C,2 A,, | B,,2 B,, B,,2 B,, | %19
[M:7/4] B,,3 E,3 z2 z2 z4 |] %20

